svg/fluentui-system-icons/ic_fluent_currency_dollar_rupee_16_filled.svg

<svg width="16" height="16" viewBox="0 0 16 16" fill="none" xmlns="http://www.w3.org/2000/svg">
<path d="M5.50183 2.75C5.50183 2.33579 5.16604 2 4.75183 2C4.33762 2 4.00183 2.33579 4.00183 2.75V3.10442C2.84656 3.43093 2 4.493 2 5.75279V5.78956C2 6.89604 2.6542 7.89785 3.66729 8.34277L4.00183 8.48969V11.2405C3.69723 11.0123 3.5 10.6483 3.5 10.2382V9.63529C3.5 9.22108 3.16421 8.88529 2.75 8.88529C2.33579 8.88529 2 9.22108 2 9.63529V10.2382C2 11.4985 2.84709 12.5602 4.00183 12.8865V13.2519C4.00183 13.6662 4.33762 14.0019 4.75183 14.0019C5.16604 14.0019 5.50183 13.6662 5.50183 13.2519V12.8853C6.66236 12.5534 7.50362 11.4721 7.50362 10.2194C7.50361 9.12024 6.85544 8.10463 5.83949 7.65846L5.50183 7.51017V4.75045C5.80649 4.97878 6.00362 5.34276 6.00362 5.75278L6.00363 6.36609C6.00363 6.78031 6.33942 7.11609 6.75363 7.11609C7.16784 7.11609 7.50363 6.7803 7.50363 6.36609L7.50362 5.75278C7.50362 4.493 6.65708 3.43095 5.50183 3.10443V2.75ZM4.00183 4.75042V6.81015C3.68993 6.56972 3.5 6.19483 3.5 5.78956V5.75279C3.5 5.34274 3.69715 4.97875 4.00183 4.75042ZM5.50183 9.19035C5.8114 9.43136 6.00362 9.81151 6.00362 10.2194C6.00362 10.6329 5.80506 11.0012 5.50183 11.2335V9.19035ZM8.00001 3.25098C8.00001 2.83676 8.33579 2.50098 8.75001 2.50098H13.25C13.6642 2.50098 14 2.83676 14 3.25098C14 3.66519 13.6642 4.00098 13.25 4.00098H12.8487C12.9401 4.15909 13.0176 4.32632 13.0793 4.50098H13.25C13.6642 4.50098 14 4.83676 14 5.25098C14 5.66519 13.6642 6.00098 13.25 6.00098H13.2085C12.9749 7.39373 11.7816 8.46108 10.3318 8.49988L13.8305 12.776C14.0928 13.0966 14.0455 13.5691 13.7249 13.8314C13.4044 14.0937 12.9318 14.0465 12.6695 13.7259L8.16954 8.2259C7.98603 8.00162 7.94816 7.69168 8.07226 7.4298C8.19635 7.16793 8.46022 7.00098 8.75001 7.00098H10.25C10.9031 7.00098 11.4587 6.58357 11.6647 6.00098H8.75001C8.33579 6.00098 8.00001 5.66519 8.00001 5.25098C8.00001 4.83676 8.33579 4.50098 8.75001 4.50098H11.3681C11.0934 4.1941 10.6943 4.00098 10.25 4.00098H8.75001C8.33579 4.00098 8.00001 3.66519 8.00001 3.25098Z" fill="#212121"/>
</svg>

<svg xmlns="http://www.w3.org/2000/svg" width="16" height="16"><path d="M5.502 2.75a.75.75 0 0 0-1.5 0v.354A2.753 2.753 0 0 0 2 5.753v.037c0 1.106.654 2.108 1.667 2.553l.335.147v2.75a1.25 1.25 0 0 1-.502-1.002v-.603a.75.75 0 0 0-1.5 0v.603c0 1.26.847 2.322 2.002 2.649v.365a.75.75 0 1 0 1.5 0v-.367a2.78 2.78 0 0 0 2.002-2.666 2.8 2.8 0 0 0-1.665-2.56l-.337-.149V4.75c.304.229.502.593.502 1.003v.613a.75.75 0 1 0 1.5 0v-.613c0-1.26-.847-2.322-2.002-2.649V2.75Zm-1.5 2v2.06A1.289 1.289 0 0 1 3.5 5.79v-.037c0-.41.197-.774.502-1.003Zm1.5 4.44c.31.241.502.622.502 1.03 0 .413-.199.781-.502 1.013V9.19ZM8 3.251a.75.75 0 0 1 .75-.75h4.5a.75.75 0 0 1 0 1.5h-.401c.091.158.169.325.23.5h.171a.75.75 0 0 1 0 1.5h-.041A3 3 0 0 1 10.332 8.5l3.498 4.276a.75.75 0 0 1-1.16.95l-4.5-5.5A.75.75 0 0 1 8.75 7h1.5a1.5 1.5 0 0 0 1.415-1H8.75a.75.75 0 1 1 0-1.5h2.618A1.496 1.496 0 0 0 10.25 4h-1.5A.75.75 0 0 1 8 3.25Z"/></svg>
